X:203 
T:Tell Her I Am  
B:CRE3.033 (Abair LÃÂÃÂÃÂÃÂ©i go bhfuil MÃÂÃÂÃÂÃÂ©)
F:file ID: cre.3/203tell_her
N:This has only two parts in O'Neills's 1850.
R:jig
Q:160
M:6/8
L:1/8
K:G
B/d/|edB G2G|DED G2G|DED c2A|BGE EBd|
"5"edB G2G|DED G3|AGE GBA|GFE D2:|
d|"9"B3 dBG|B3 dBG|A2A AGA|BGF E2B|
"13"BAB deg|bge d2B|BAG GBA|GFE D2:|
|:d|"17"efg efg|dBG AGE|a3 aga|bgf e2d|
[1 efg efg|dBG AGE|agf gba|gfe d2:|
[2 def gba|gfe d2B|BAG GBA|GFE HD3 |]

%%%

